icon/ir/archery.svg

<svg stroke-width="1.5" viewBox="0 0 24 24" fill="none" xmlns="http://www.w3.org/2000/svg" height="1em" width="1em">
  <path d="M7 12H18M7 12L5 10H1L3 12L1 14H5L7 12ZM18 12L16 10M18 12L16 14" stroke="currentColor" stroke-linecap="round" stroke-linejoin="round"/>
  <path d="M17.5 22C20.5376 22 23 17.5228 23 12C23 6.47715 20.5376 2 17.5 2C14.4624 2 12 6.47715 12 12C12 17.5228 14.4624 22 17.5 22Z" stroke="currentColor" stroke-linecap="round" stroke-linejoin="round"/>
</svg>

<svg width="24" height="24" stroke-width="1.5" fill="none" xmlns="http://www.w3.org/2000/svg"><path d="M7 12h11M7 12l-2-2H1l2 2-2 2h4l2-2Zm11 0-2-2m2 2-2 2M17.5 22c3.038 0 5.5-4.477 5.5-10S20.538 2 17.5 2 12 6.477 12 12s2.462 10 5.5 10Z" stroke="currentColor" stroke-linecap="round" stroke-linejoin="round"/></svg>
